icons/ruler-2-fill.svg

<svg xmlns="http://www.w3.org/2000/svg" width="24" height="24" fill="none"><g clip-path="url(#a)"><g><path fill="#121212" d="M15 21H13V18H11V21H9V19H7V21H4C3.73478 21 3.48043 20.8946 3.29289 20.7071C3.10536 20.5196 3 20.2652 3 20V17H5V15H3V13H6V11H3V9H5V7H3V4C3 3.73478 3.10536 3.48043 3.29289 3.29289C3.48043 3.10536 3.73478 3 4 3H10C10.2652 3 10.5196 3.10536 10.7071 3.29289C10.8946 3.48043 11 3.73478 11 4V13H20C20.2652 13 20.5196 13.1054 20.7071 13.2929C20.8946 13.4804 21 13.7348 21 14V20C21 20.2652 20.8946 20.5196 20.7071 20.7071C20.5196 20.8946 20.2652 21 20 21H17V19H15V21Z"/></g></g><defs><clipPath id="a"><rect width="24" height="24" fill="white"/></clipPath></defs></svg>

<svg width="24" height="24" fill="none" xmlns="http://www.w3.org/2000/svg"><g clip-path="url(#a)"><path d="M15 21h-2v-3h-2v3H9v-2H7v2H4a1 1 0 0 1-1-1v-3h2v-2H3v-2h3v-2H3V9h2V7H3V4a1 1 0 0 1 1-1h6a1 1 0 0 1 1 1v9h9a1 1 0 0 1 1 1v6a1 1 0 0 1-1 1h-3v-2h-2v2Z" /></g><defs><clipPath id="a"><path fill="#fff" d="M0 0h24v24H0z"/></clipPath></defs></svg>
